X: 15449
T: Glen Of Lismore
R: jig
M: 6/8
K: Dmajor
|:c|dAF FGA|BGB d2 B|Adf fed|cec ABc|
dAF FGA|BGB d2 B|Adf edc|d3 d2:|
|:f|ecA ABc|d2 f afd|gab afd|c<ec ABc|
dcd fed|gfg bge|afd gec|d3 d2:|

